X: 28002
T: Moving Bogs, The
R: reel
M: 4/4
K: Dmajor
|:A,|D2FA d2ec|defg ecAc|d2cd BAGF|E2AE FDDA,|
D2FA d2ec|defg fedc|d2cd BAGF|E2AE FDD:|
|:A|d2fd gdfd|gabg efgA|d2fd gdfd|gabg efgA|
d2fd gdfd|gabg efgA|d2cd BAGF|E2AE FDD:|

